X:1
T:Title
%%score ( 1 2 ) { 3 | 4 }
L:1/8
Q:1/4=130
M:3/4
K:C
V:1 treble nm="Grand Piano, Soprano"
V:2 treble 
V:3 bass nm="Choir Pad, Tamaulipas, W Gilchrist 1901"
V:4 bass 
V:1
 [CG]4 [CA]2 | [Cc]4 [CG]2 | [CE]4 [B,D]2 | C6 | [EA]4 [Ec]2 | [Ge]4 c-[Ac] | [Gc]4 [FB]2 | [Ec]6 | %8
w: By~William~Wallace~Gilchrist,~1901 *||||||||
 [Ec]4 [Fd]2 | [FA]4 F2 | [FA]4 [EG]2 | F6 | F2 z2 z2 | [CG]4 [EA]2 | [Gc]4 [FB]2 | [Ec]6- | %16
w: ||||||||
 [Ec]2 z2 z2 |] %17
w: |
V:2
 x6 | x6 | x6 | x6 | x6 | z2 z2 .G2 | x6 | x6 | x6 | x6 | x6 | x6 | B,2- [B,E]2 [B,D]2 | x6 | x6 | %15
 x6 | x6 |] %17
V:3
 E,4 F,2 | E,4 G,A, | G,4 F,2 | E,6 | C4 C2 | C4 C2 | E4 D2 | C6 | G,4 _B,2 | C4 CD | %10
 C4[K:bass] _B,2 | A,6 | A,2 G,2 G,2 | G,4[K:treble] C2 | C4 D2 | C6- | C2 z2 z2 |] %17
V:4
 C,4 C,2 | C,4 E,F, | z2 z2 G,,2 | C,6 | A,,4 A,2 | E,4 E,F, | G,4 G,2 | C,6 | C,4 _B,,2 | %9
 F,4 A,,_B,, | C,4 C,2 | D,6 | G,,2 z2 F,2 | E,4 C,2 | G,,4 G,2 | C,6- | C,2 z2 z2 |] %17

